X:1
T:Title
%%score { ( 1 3 ) | ( 2 4 ) }
L:1/8
M:6/8
K:E
V:1 treble nm="Grand Piano"
V:3 treble 
V:2 bass 
V:4 bass 
V:1
 z3 z2[Q:1/4=100] [Ge] | [Gd]2 [Gc] G2 G | B2 A A2 G | [EF]2 [EF] [Ge]2 [Fd] |[M:5/8] [Ec]3 [DB]2 | %5
[M:1/8] d |[M:3/4] c2 d B2 B | d2 c B2 B | B2 [B,GB][GB] A[CEG] | [A,DF]3 E3 | G3 F2 E | %11
 B2 A G2 [=DGB] | [FG=d]2 [EGc] [DGB]2 [EGc] | [=DEB]2 [CEA] [B,EG]3 | [^A,EF]3 [Ge] [Fd][Ec] | %15
 [Ge]2 [EB] [EB]2 [CEA] | [B,EG]2 [^B,EG]B z [=B,EG] |[M:5/8] [A,DF]3 [G,E]2 |] %18
V:2
 z3 z2 [E,B,] | [E,B,]2 [E,B,] [E,E]2 [E,DE] | [E,CE]2 [E,CE] [E,CE]2 [E,B,E] | %3
 [C,^A,]2 [C,A,] [F,A,]2 [F,A,] |[M:5/8] [B,,^A,]3 [B,,B,]2 |[M:1/8][K:treble] [B,F] | %6
[M:3/4] [A,B,E]2 [A,B,F] [G,B,E]2 [G,B,E] | [=G,^A,E]2 [G,A,E] [F,=A,D]2 [F,A,D] | %8
 [E,G,E]2 .E,2 FA,, | B,,3 [E,G,]3 | [E,B,E]3 [E,A,E]2 [E,G,] | [E,=DE]2 [E,CE] [E,B,E]2 E, | %12
 E,2 E, E,2 E, | A,,2 A,, E,3 | C,3 [F,^A,]2 [F,A,] | [B,,B,]2 [B,,G,] [B,,G,]2 B,, | %16
 B,,2 .B,,2 AB,, |[M:5/8] B,,3 E,2 |] %18
V:3
 x6 | x6 | x6 | x6 |[M:5/8] x5 |[M:1/8] x |[M:3/4] x6 | x6 | z2 z .C3 | x6 | x6 | x6 | x6 | x6 | %14
 x6 | x6 | z2 z .[CE]3 |[M:5/8] x5 |] %18
V:4
 x6 | x6 | x6 | x6 |[M:5/8] x5 |[M:1/8][K:treble] x |[M:3/4] x6 | x6 | z2 z .A,,3 | x6 | x6 | x6 | %12
 x6 | x6 | x6 | x6 | z2 z .B,,3 |[M:5/8] x5 |] %18

